X: 1
T: Old Grey Cat
R: reel
M: 4/4
L: 1/8
K: Edor
|:b2 e2 E3 F|GFGA BABc|d2 d2 D3 E|FAdB AFED|
E2 e2 E3 F|GFGA BABc|dcBA BAGF|E4 e2 z2:|
|:B2 e2 e3 d|Bdef gfed|A2 d2 d3 B|ABde fedf|
e2 B2 g2 B2|a2 B2 b3 a|gfed BABd|e4 e2 z2:|


Tune 3420	Setting 16464

